images/customers/Activity-1.svg

<svg width="68" height="67" viewBox="0 0 68 67" fill="none" xmlns="http://www.w3.org/2000/svg">
<path d="M37.6799 8.42617L18.1496 14.4376C11.0324 16.6282 7.9973 22.1449 9.75752 29.6911L14.5832 50.379C16.3434 57.9252 21.3731 60.9595 28.4903 58.7689L48.0206 52.7575C55.1378 50.5668 58.1543 45.0558 56.3941 37.5097L51.5684 16.8218C49.8082 9.27558 44.7971 6.23553 37.6799 8.42617Z" fill="url(#paint0_linear_42_44)"/>
<g opacity="0.5" filter="url(#filter0_f_42_44)">
<path d="M36.2811 17.6791L23.3804 21.6497C18.6792 23.0967 16.6426 26.6043 17.7492 31.3481L20.783 44.3534C21.8896 49.0973 25.1801 50.9652 29.8814 49.5183L42.7821 45.5476C47.4833 44.1007 49.5076 40.5969 48.401 35.853L45.3673 22.8477C44.2607 18.1039 40.9824 16.2322 36.2811 17.6791Z" fill="#E31313"/>
</g>
<g filter="url(#filter1_b_42_44)">
<path d="M50.5629 19.2966H32.1052C24.8881 19.2966 20.0342 24.8543 20.0342 33.1208V52.199C20.0342 60.4421 24.8881 65.9998 32.1052 65.9998H50.5629C57.78 65.9998 62.6126 60.4421 62.6126 52.199V33.1208C62.6126 24.8543 57.78 19.2966 50.5629 19.2966Z" fill="#F03E3D"/>
<path d="M50.5629 18.7966H32.1052C28.3597 18.7966 25.202 20.243 22.9867 22.7799C20.7765 25.3109 19.5342 28.8916 19.5342 33.1208V52.199C19.5342 56.4168 20.7767 59.9917 22.9869 62.5197C25.2022 65.0535 28.3598 66.4998 32.1052 66.4998H50.5629C54.3085 66.4998 57.461 65.0534 59.671 62.5192C61.8758 59.991 63.1126 56.4163 63.1126 52.199V33.1208C63.1126 28.8921 61.876 25.3116 59.6712 22.7804C57.4611 20.2431 54.3085 18.7966 50.5629 18.7966Z" stroke="url(#paint1_linear_42_44)" stroke-linecap="round" stroke-linejoin="round"/>
</g>
<g filter="url(#filter2_b_42_44)">
<path d="M64.8714 15.8657C63.1437 15.8657 61.7432 17.4019 61.7432 19.297C61.7432 21.192 63.1437 22.7282 64.8714 22.7282C66.599 22.7282 67.9996 21.192 67.9996 19.297C67.9996 18.3869 67.67 17.5142 67.0834 16.8707C66.4967 16.2272 65.701 15.8657 64.8714 15.8657Z" fill="url(#paint2_linear_42_44)"/>
</g>
<g filter="url(#filter3_bd_42_44)">
<path d="M52.4615 38.5129L46.3773 47.1245C46.1214 47.4988 45.7374 47.743 45.3138 47.801C44.8901 47.859 44.4631 47.7258 44.1309 47.4321L38.2901 42.4086L33.0297 49.872C32.6488 50.5355 31.9068 50.8337 31.2245 50.5974C30.5422 50.3612 30.0915 49.6501 30.128 48.8673C30.1249 48.48 30.2439 48.1034 30.465 47.8011L36.7551 38.9025C37.008 38.5312 37.3868 38.2871 37.8059 38.2254C38.2251 38.1636 38.6493 38.2895 38.9828 38.5744L44.8235 43.6184L49.9529 36.3805C50.1995 36.0073 50.5737 35.7596 50.99 35.6939C51.4063 35.6282 51.8292 35.7502 52.1619 36.0319C52.8494 36.6217 52.9823 37.7042 52.4615 38.4719V38.5129Z" fill="url(#paint3_linear_42_44)"/>
<path d="M46.214 47.0091L46.214 47.0091L46.2122 47.0116C45.986 47.3425 45.6506 47.553 45.2866 47.6029C44.9231 47.6526 44.5538 47.5391 44.2634 47.2822L44.2613 47.2804L38.4205 42.257L38.2535 42.1134L38.1267 42.2934L32.8662 49.7568L32.8609 49.7644L32.8563 49.7724C32.519 50.3599 31.8738 50.6106 31.2899 50.4084C30.7008 50.2044 30.295 49.5812 30.3278 48.8767L30.3281 48.8767L30.328 48.8657C30.3252 48.5198 30.4316 48.1855 30.6264 47.9192L30.6265 47.9192L30.6283 47.9166L36.9184 39.0179L36.9184 39.0179L36.9204 39.0151C37.1439 38.6868 37.4749 38.4763 37.8351 38.4232C38.1947 38.3703 38.5612 38.4774 38.8524 38.7261C38.8526 38.7262 38.8527 38.7263 38.8529 38.7265L44.6928 43.7697L44.8594 43.9136L44.9867 43.734L50.1161 36.4961L50.1162 36.4962L50.1198 36.4908C50.3376 36.1612 50.6641 35.9478 51.0212 35.8915C51.3776 35.8352 51.7421 35.9388 52.0322 36.1841C52.6392 36.7053 52.7617 37.6731 52.296 38.3596L52.2615 38.4105V38.4494L46.214 47.0091Z" stroke="url(#paint4_linear_42_44)" stroke-width="0.4"/>
</g>
<defs>
<filter id="filter0_f_42_44" x="0.454102" y="0.201172" width="65.2432" height="66.7954" filterUnits="userSpaceOnUse" color-interpolation-filters="sRGB">
<feFlood flood-opacity="0" result="BackgroundImageFix"/>
<feBlend mode="normal" in="SourceGraphic" in2="BackgroundImageFix" result="shape"/>
<feGaussianBlur stdDeviation="8.5" result="effect1_foregroundBlur_42_44"/>
</filter>
<filter id="filter1_b_42_44" x="-4.96582" y="-5.70337" width="92.5781" height="96.7031" filterUnits="userSpaceOnUse" color-interpolation-filters="sRGB">
<feFlood flood-opacity="0" result="BackgroundImageFix"/>
<feGaussianBlur in="BackgroundImageFix" stdDeviation="12"/>
<feComposite in2="SourceAlpha" operator="in" result="effect1_backgroundBlur_42_44"/>
<feBlend mode="normal" in="SourceGraphic" in2="effect1_backgroundBlur_42_44" result="shape"/>
</filter>
<filter id="filter2_b_42_44" x="46.7432" y="0.865723" width="36.2568" height="36.8625" filterUnits="userSpaceOnUse" color-interpolation-filters="sRGB">
<feFlood flood-opacity="0" result="BackgroundImageFix"/>
<feGaussianBlur in="BackgroundImageFix" stdDeviation="7.5"/>
<feComposite in2="SourceAlpha" operator="in" result="effect1_backgroundBlur_42_44"/>
<feBlend mode="normal" in="SourceGraphic" in2="effect1_backgroundBlur_42_44" result="shape"/>
</filter>
<filter id="filter3_bd_42_44" x="15.126" y="20.6765" width="52.6533" height="45.0012" filterUnits="userSpaceOnUse" color-interpolation-filters="sRGB">
<feFlood flood-opacity="0" result="BackgroundImageFix"/>
<feGaussianBlur in="BackgroundImageFix" stdDeviation="7.5"/>
<feComposite in2="SourceAlpha" operator="in" result="effect1_backgroundBlur_42_44"/>
<feColorMatrix in="SourceAlpha" type="matrix" values="0 0 0 0 0 0 0 0 0 0 0 0 0 0 0 0 0 0 127 0" result="hardAlpha"/>
<feOffset dx="5" dy="5"/>
<feGaussianBlur stdDeviation="5"/>
<feColorMatrix type="matrix" values="0 0 0 0 1 0 0 0 0 0.321569 0 0 0 0 0.54902 0 0 0 0.5 0"/>
<feBlend mode="normal" in2="effect1_backgroundBlur_42_44" result="effect2_dropShadow_42_44"/>
<feBlend mode="normal" in="SourceGraphic" in2="effect2_dropShadow_42_44" result="shape"/>
</filter>
<linearGradient id="paint0_linear_42_44" x1="36.8464" y1="35.6215" x2="2.4676" y2="63.315" gradientUnits="userSpaceOnUse">
<stop stop-color="#F03E3D"/>
<stop offset="1" stop-color="#870404"/>
</linearGradient>
<linearGradient id="paint1_linear_42_44" x1="26.812" y1="24.7376" x2="57.0645" y2="58.8969" gradientUnits="userSpaceOnUse">
<stop stop-color="white" stop-opacity="0.25"/>
<stop offset="1" stop-color="white" stop-opacity="0"/>
</linearGradient>
<linearGradient id="paint2_linear_42_44" x1="65.332" y1="19.7565" x2="59.6511" y2="22.2747" gradientUnits="userSpaceOnUse">
<stop stop-color="#FF759F" stop-opacity="0"/>
<stop offset="1" stop-color="#FF196E"/>
</linearGradient>
<linearGradient id="paint3_linear_42_44" x1="51.1732" y1="38.3854" x2="25.9738" y2="39.6261" gradientUnits="userSpaceOnUse">
<stop stop-color="white"/>
<stop offset="1" stop-color="white" stop-opacity="0.2"/>
</linearGradient>
<linearGradient id="paint4_linear_42_44" x1="33.732" y1="37.4242" x2="41.8726" y2="52.6495" gradientUnits="userSpaceOnUse">
<stop stop-color="white" stop-opacity="0.25"/>
<stop offset="1" stop-color="white" stop-opacity="0"/>
</linearGradient>
</defs>
</svg>

<svg xmlns="http://www.w3.org/2000/svg" width="68" height="67" fill="none"><path fill="url(#a)" d="m37.68 8.426-19.53 6.012c-7.118 2.19-10.153 7.707-8.392 15.253l4.825 20.688c1.76 7.546 6.79 10.58 13.907 8.39l19.53-6.011c7.118-2.191 10.134-7.702 8.374-15.248l-4.826-20.688c-1.76-7.546-6.77-10.586-13.888-8.396Z"/><g filter="url(#b)" opacity=".5"><path fill="#E31313" d="m36.281 17.68-12.9 3.97c-4.702 1.447-6.738 4.954-5.632 9.698l3.034 13.005c1.107 4.744 4.397 6.612 9.098 5.165l12.901-3.97c4.701-1.447 6.726-4.951 5.619-9.695l-3.034-13.005c-1.106-4.744-4.385-6.616-9.086-5.169Z"/></g><g filter="url(#c)"><path fill="#F03E3D" d="M50.563 19.297H32.105c-7.217 0-12.07 5.557-12.07 13.824v19.078c0 8.243 4.853 13.8 12.07 13.8h18.458c7.217 0 12.05-5.557 12.05-13.8V33.121c0-8.267-4.833-13.824-12.05-13.824Z"/><path stroke="url(#d)" stroke-linecap="round" stroke-linejoin="round" d="M50.563 18.797H32.105c-3.745 0-6.903 1.446-9.118 3.983-2.21 2.53-3.453 6.112-3.453 10.34V52.2c0 4.218 1.243 7.793 3.453 10.32 2.215 2.535 5.373 3.98 9.118 3.98h18.458c3.745 0 6.898-1.446 9.108-3.98 2.205-2.528 3.442-6.103 3.442-10.32V33.121c0-4.229-1.237-7.81-3.442-10.34-2.21-2.538-5.362-3.984-9.108-3.984Z"/></g><g filter="url(#e)"><path fill="url(#f)" d="M64.871 15.866c-1.727 0-3.128 1.536-3.128 3.431s1.4 3.431 3.128 3.431c1.728 0 3.129-1.536 3.129-3.431 0-.91-.33-1.783-.917-2.426-.586-.644-1.382-1.005-2.212-1.005Z"/></g><g filter="url(#g)"><path fill="url(#h)" d="m52.462 38.513-6.085 8.611a1.55 1.55 0 0 1-1.063.677 1.478 1.478 0 0 1-1.183-.369l-5.84-5.023-5.261 7.463c-.381.663-1.123.962-1.806.725-.682-.236-1.133-.947-1.096-1.73a1.786 1.786 0 0 1 .337-1.066l6.29-8.898a1.552 1.552 0 0 1 1.05-.678c.42-.061.844.064 1.178.35l5.84 5.043 5.13-7.238c.246-.373.62-.62 1.037-.686.416-.066.84.056 1.172.338.687.59.82 1.672.3 2.44v.04Z"/><path stroke="url(#i)" stroke-width=".4" d="m46.214 47.01-.002.002a1.35 1.35 0 0 1-.925.59 1.278 1.278 0 0 1-1.024-.32l-.002-.002-5.84-5.023-.167-.144-.127.18-5.26 7.464-.006.007-.005.008c-.337.588-.982.839-1.566.636-.59-.204-.995-.827-.962-1.531v-.011c-.003-.346.104-.68.298-.947l.002-.002 6.29-8.9.002-.002c.224-.328.555-.539.915-.592.36-.053.726.054 1.017.303l5.84 5.044.167.144.128-.18 5.13-7.238.003-.005c.218-.33.544-.543.901-.6.357-.056.721.048 1.011.293.607.521.73 1.49.264 2.176l-.035.05v.04l-6.047 8.56Z"/></g><defs><linearGradient id="a" x1="36.846" x2="2.468" y1="35.621" y2="63.315" gradientUnits="userSpaceOnUse"><stop stop-color="#F03E3D"/><stop offset="1" stop-color="#870404"/></linearGradient><linearGradient id="d" x1="26.812" x2="57.065" y1="24.738" y2="58.897" gradientUnits="userSpaceOnUse"><stop stop-color="#fff" stop-opacity=".25"/><stop offset="1" stop-color="#fff" stop-opacity="0"/></linearGradient><linearGradient id="f" x1="65.332" x2="59.651" y1="19.756" y2="22.275" gradientUnits="userSpaceOnUse"><stop stop-color="#FF759F" stop-opacity="0"/><stop offset="1" stop-color="#FF196E"/></linearGradient><linearGradient id="h" x1="51.173" x2="25.974" y1="38.385" y2="39.626" gradientUnits="userSpaceOnUse"><stop stop-color="#fff"/><stop offset="1" stop-color="#fff" stop-opacity=".2"/></linearGradient><linearGradient id="i" x1="33.732" x2="41.873" y1="37.424" y2="52.65" gradientUnits="userSpaceOnUse"><stop stop-color="#fff" stop-opacity=".25"/><stop offset="1" stop-color="#fff" stop-opacity="0"/></linearGradient><filter id="b" width="65.243" height="66.795" x=".454" y=".201" color-interpolation-filters="sRGB" filterUnits="userSpaceOnUse"><feFlood flood-opacity="0" result="BackgroundImageFix"/><feBlend in="SourceGraphic" in2="BackgroundImageFix" result="shape"/><feGaussianBlur result="effect1_foregroundBlur_42_44" stdDeviation="8.5"/></filter><filter id="c" width="92.578" height="96.703" x="-4.966" y="-5.703" color-interpolation-filters="sRGB" filterUnits="userSpaceOnUse"><feFlood flood-opacity="0" result="BackgroundImageFix"/><feGaussianBlur in="BackgroundImageFix" stdDeviation="12"/><feComposite in2="SourceAlpha" operator="in" result="effect1_backgroundBlur_42_44"/><feBlend in="SourceGraphic" in2="effect1_backgroundBlur_42_44" result="shape"/></filter><filter id="e" width="36.257" height="36.862" x="46.743" y=".866" color-interpolation-filters="sRGB" filterUnits="userSpaceOnUse"><feFlood flood-opacity="0" result="BackgroundImageFix"/><feGaussianBlur in="BackgroundImageFix" stdDeviation="7.5"/><feComposite in2="SourceAlpha" operator="in" result="effect1_backgroundBlur_42_44"/><feBlend in="SourceGraphic" in2="effect1_backgroundBlur_42_44" result="shape"/></filter><filter id="g" width="52.653" height="45.001" x="15.126" y="20.677" color-interpolation-filters="sRGB" filterUnits="userSpaceOnUse"><feFlood flood-opacity="0" result="BackgroundImageFix"/><feGaussianBlur in="BackgroundImageFix" stdDeviation="7.5"/><feComposite in2="SourceAlpha" operator="in" result="effect1_backgroundBlur_42_44"/><feColorMatrix in="SourceAlpha" result="hardAlpha" values="0 0 0 0 0 0 0 0 0 0 0 0 0 0 0 0 0 0 127 0"/><feOffset dx="5" dy="5"/><feGaussianBlur stdDeviation="5"/><feColorMatrix values="0 0 0 0 1 0 0 0 0 0.321569 0 0 0 0 0.54902 0 0 0 0.5 0"/><feBlend in2="effect1_backgroundBlur_42_44" result="effect2_dropShadow_42_44"/><feBlend in="SourceGraphic" in2="effect2_dropShadow_42_44" result="shape"/></filter></defs></svg>
